svg/fluentui-system-icons/ic_fluent_rename_16_filled.svg

<svg width="16" height="16" viewBox="0 0 16 16" fill="none" xmlns="http://www.w3.org/2000/svg">
<path d="M6.5 2C6.22386 2 6 2.22386 6 2.5C6 2.77614 6.22386 3 6.5 3H7.5V13H6.5C6.22386 13 6 13.2239 6 13.5C6 13.7761 6.22386 14 6.5 14H9.5C9.77614 14 10 13.7761 10 13.5C10 13.2239 9.77614 13 9.5 13H8.5V3H9.5C9.77614 3 10 2.77614 10 2.5C10 2.22386 9.77614 2 9.5 2H6.5ZM4 4H6.5V12H4C2.89543 12 2 11.1046 2 10V6C2 4.89543 2.89543 4 4 4ZM12 12H9.5V4H12C13.1046 4 14 4.89543 14 6V10C14 11.1046 13.1046 12 12 12Z" fill="#212121"/>
</svg>

<svg xmlns="http://www.w3.org/2000/svg" width="16" height="16"><path d="M6.5 2a.5.5 0 0 0 0 1h1v10h-1a.5.5 0 0 0 0 1h3a.5.5 0 0 0 0-1h-1V3h1a.5.5 0 0 0 0-1h-3ZM4 4h2.5v8H4a2 2 0 0 1-2-2V6a2 2 0 0 1 2-2Zm8 8H9.5V4H12a2 2 0 0 1 2 2v4a2 2 0 0 1-2 2Z"/></svg>
